X:1357
T:Polska efter Johan Andersson
Z:[[http://www.bluerose.karenlmyers.org/IncipitsPolskaNarke2.html|Karen Myers (#2192)]]
Z:Upptecknad 9/2004
M:3/4
L:1/8
R:Polska
O:Närke
K:Gm
D2 GA/G/ ^F>G | A2 B>(G (3A)Bc | d2 dc A>B | G2 A^F D2 |
D2 GA/G/ ^F>G | A2 B>(G (3A)Bc | d2 dc A>B | G2 A^F D2 :|
|: D2 de/d/ (3c(dc) | B>(A (3B)cB (3A(BA) | G>^F GA c>B | G2 A^F D2 |
D2 de/d/ (3c(dc) | B>(A (3B)cB (3A(BA) | G>^F GA c>B | G^F G4 :|
(:musicend:)

(:music:)
